X:5
T:The Foggy Night
R:reel
C:Tiennet Simonnin
M:C|
L:1/8
K:Em
~e3f gedB|cGEG ~F3A|GABd g2bg|faaf gf\^ed|
~e3f gedB|cGEG ~F3A|GABd g2bg|[1 faaf geeB:|[2 faaf g~e3||
~a3b ~f3e|deed BAFA|~g3f efdB|AFDE FAdf|
~a3b ~f3e|deed BAFA|(3B^cdef g2bg|fage d4:||
%"avec accompagnement"
"Em"~e3f gedB|"Am7"cGEG "D7"~F3A|
"G"GABd g2bg|"F#m7"faaf "B7"gf\^ed|
"Em"~e3f gedB|"Am7"cGEG "D7"~F3A|
"G"GABd g2bg|[1 "B7"faaf "Em"geeB:|[2 "B7"faaf "Em"g~e3||
"D"~a3b ~f3e|"DM7"deed BAFA|
"Em7"~g3f efdB|"A"AFDE "D"FAdf|
"F#m7"~a3b ~f3e|"Bm7"deed BAFA|
"Em7"(3B^cdef g2bg|"A7"fage "D"d4:||
